X:36
T:Peacock Jigg
B:Walsh
M:6/4
L:1/8
N:
K:E
E6 G4 A2| B2 G2 E2 e4 B2| cd e2 c2 B2 AGFE| F6 B,6| E6 G4 A2|\
B2 G2 E2 e4 d2| cd e2 c2 f2 d2 B2| e6 E6::\
g6 e2 dc B2| e6 e4 B2| cd e2 c2 B2 AGFE| F6 B,4 fg |a6 e6| fg agfe d4 B2|\
cd e2 c2 f2 d2 B2 e6 E6:|
